X:1
T:Title
%%score { ( 1 3 ) | 2 }
L:1/8
M:6/8
K:Bb
V:1 treble nm="Grand Piano"
V:3 treble 
V:2 bass 
V:1
 z3 z2[Q:1/4=84] [DF] | [DF]>[DG][DF] [Fd][Fc][FB] | [GB][FA][EG] [DF]2 F | F>GA BAG | GAB c2 F | %5
 [Fd]>[=E_d][F=d] [_Ec][DB][DF] | [EG][FA][GB] [Ge]2 [Ge] | d>cB A<Bc |[M:5/8] B-B- B3 | %9
[M:1/8] [D_AB] |[M:3/4] [GB]>[^FA] [GB][Gc]/[GB]/- [GB][EG] | [DF]2 [EA] [DB]2 [DF] | %12
 [Fd][Ec] [DB][DG] [EA][FB] | c6 | [^Fd][FA] [Ac] [GB]2 [_AB]/[AB]/ | [GB][^FA] [GB] [Ge]2 [Ge] | %16
 d>c BA Bc |[M:5/8] [DB]-[DB]- [DB]3 |] %18
V:2
 z3 z2 [B,,B,] | [B,,B,]>[B,,B,][B,,B,] [B,,B,][C,A,][D,B,] | [E,B,][E,B,][E,B,] [B,,B,]2 [B,D] | %3
 [A,CE]>[A,CE][A,CE] [G,B,D][G,CD][G,B,D] | [B,C=E][A,CE][G,CE] [F,C_E]2 [F,A,] | %5
 [B,,B,]>[B,,B,][B,,B,] [B,,B,][B,,B,][B,,B,] | [E,B,][E,B,][E,E] [E,B,]2 [E,B,] | %7
 [F,B,F]>[F,A,E][F,B,D] [F,CE]<[F,B,D][F,A,E] |[M:5/8] B,,2 B,, B,,2 |[M:1/8] B,, | %10
[M:3/4] [E,E]>[E,E] [E,E][E,E]/[E,E]/- [E,E][E,B,] | [B,,B,]2 [F,C] [B,,B,]2 [B,,B,] | %12
 [B,,B,][B,,F,] [B,,F,][B,,B,] [C,F,][D,B,] | [F,A,F][G,B,] [B,,B,] [F,A,]2 [E,A,]/[E,A,]/ | %14
 [D,A,][D,D] [D,D] [G,D]2 [F,D]/[F,D]/ | [E,E][E,E] [E,E] [E,B,]2 [E,B,] | %16
 [F,B,F]>[F,A,E] [F,B,D][F,CE] [F,B,D][F,A,E] |[M:5/8] [B,,B,]-[B,,B,]- [B,,B,]3 |] %18
V:3
 x6 | x6 | x6 | x6 | x6 | x6 | x6 | x6 |[M:5/8] [B,D]2 [G,E] [F,D]2 |[M:1/8] x |[M:3/4] x6 | x6 | %12
 x6 | z =E G F2 [G_d]/[Gd]/ | x6 | x6 | x6 |[M:5/8] x5 |] %18

